public/img/prop-icon5.svg

<svg width="23" height="29" viewBox="0 0 23 29" fill="none" xmlns="http://www.w3.org/2000/svg">
<path d="M20.8228 20.0113H2.08228V3.29758H20.8228M20.8228 0.511963H2.08228C0.926612 0.511963 0 1.75156 0 3.29758V20.0113C0 20.7501 0.219382 21.4586 0.609884 21.981C1.00039 22.5034 1.53002 22.7969 2.08228 22.7969H9.37024V25.5825H7.28796V28.3682H15.6171V25.5825H13.5348V22.7969H20.8228C21.375 22.7969 21.9046 22.5034 22.2951 21.981C22.6856 21.4586 22.905 20.7501 22.905 20.0113V3.29758C22.905 2.55879 22.6856 1.85026 22.2951 1.32785C21.9046 0.805447 21.375 0.511963 20.8228 0.511963Z" fill="black"/>
</svg>

<svg width="23" height="29" fill="none" xmlns="http://www.w3.org/2000/svg"><path d="M20.823 20.011H2.083V3.298h18.74m0-2.786H2.083C.926.512 0 1.752 0 3.298V20.01c0 .74.22 1.448.61 1.97s.92.816 1.472.816H9.37v2.785H7.288v2.786h8.33v-2.785h-2.083v-2.786h7.288c.552 0 1.082-.294 1.472-.816.39-.522.61-1.23.61-1.97V3.298c0-.74-.22-1.448-.61-1.97-.39-.523-.92-.816-1.472-.816z" fill="#000"/></svg>
